img/header/RestartLogo.svg

<svg width="185" height="67" viewBox="0 0 185 67" fill="none" xmlns="http://www.w3.org/2000/svg">
<path d="M34.0986 67C52.6002 67 67.5986 52.0015 67.5986 33.5C67.5986 14.9985 52.6002 0 34.0986 0C15.5971 0 0.598633 14.9985 0.598633 33.5C0.598633 52.0015 15.5971 67 34.0986 67Z" fill="#FF0000"/>
<path fill-rule="evenodd" clip-rule="evenodd" d="M32.3637 36.0631L38.8386 49.6662L27.3362 49.7423L21.293 32.7893H25.4572C26.5998 32.7893 27.7679 32.3832 28.9359 31.5457C30.1039 30.7082 30.8656 29.3124 31.1957 27.3328C31.3481 26.6984 31.4242 26.0639 31.4242 25.5056C31.4242 22.79 30.0531 21.4196 27.3362 21.4196H23.2735L18.2968 49.6662H7.58154L13.5486 15.7347H32.1098C35.1568 15.7347 37.6198 16.3692 39.4226 17.6635C41.2508 18.9578 42.1649 20.9881 42.1649 23.8052C42.1649 24.5666 42.0887 25.4041 41.9364 26.3431C41.5555 28.6525 40.8699 30.5052 39.8796 31.8756C38.8894 33.2461 37.8737 34.2105 36.8073 34.7688C35.7408 35.3525 34.7505 35.6825 33.8364 35.8347C32.9477 35.9616 32.4399 36.0378 32.3637 36.0631ZM47.5479 39.7685H62.0211C62.1227 39.7685 62.3258 38.9817 62.6305 37.4336C62.9606 35.8855 63.1129 34.3628 63.1129 32.84C63.1129 30.4544 62.6305 28.6779 61.6656 27.5359C60.6754 26.3685 59.4819 25.6325 58.0854 25.2772C56.6889 24.9472 54.8099 24.7696 52.3977 24.7696C44.6787 24.9472 40.0828 29.3631 38.6355 38.0427C38.4323 39.1086 38.3308 40.276 38.3308 41.5196C38.3308 47.0775 41.2254 50.0215 47.0147 50.326C47.1924 50.326 47.4717 50.326 47.8272 50.3514C48.1827 50.3768 48.4874 50.3768 48.6905 50.3768C51.1789 50.3768 53.3372 50.1484 55.1908 49.7169C57.0444 49.2855 58.3139 48.9302 59.0503 48.6256L61.1324 42.7885C60.4722 43.22 59.2788 43.7529 57.5776 44.4128C55.8763 45.0472 53.8958 45.4279 51.5852 45.5041C48.7159 45.5041 47.294 44.159 47.294 41.4942C47.3194 40.3522 47.3955 39.7685 47.5479 39.7685ZM53.5911 30.0738C55.8763 30.2514 57.019 31.4188 57.019 33.576C56.9428 34.8703 56.8158 35.5302 56.6381 35.5302H48.2843C48.335 34.6166 48.7159 33.4745 49.4269 32.1294C50.1632 30.759 51.5344 30.0738 53.5911 30.0738Z" fill="white"/>
<path d="M79.9979 32.2059C79.9979 32.7642 80.3534 33.1703 81.039 33.3733C81.7245 33.5764 82.9433 33.8048 84.6446 34.0078C86.3458 34.2108 87.6662 34.4646 88.5549 34.7184C91.5257 35.632 93.0238 37.4086 93.0238 40.0733C93.0238 40.3525 92.9984 40.7839 92.9222 41.3423C92.1605 47.1033 88.2248 50.1487 81.0644 50.4786C80.6835 50.504 80.1249 50.5294 79.3885 50.5294C76.9763 50.5294 74.9196 50.3264 73.2184 49.8949C71.4917 49.4889 70.6284 49.1843 70.6284 49.0574V42.8904C71.1362 43.3472 72.0503 43.9055 73.4215 44.6161C74.7672 45.3014 76.4431 45.682 78.449 45.7328C80.5819 45.7328 82.1562 45.5044 83.1465 45.0476C84.1621 44.5908 84.7461 43.8294 84.8985 42.7381C84.8985 41.7737 84.543 41.0631 83.832 40.657C83.1211 40.251 82.207 39.9464 81.0898 39.8195C79.9725 39.6926 78.6268 39.515 77.0779 39.3373C75.4782 39.0582 74.234 38.5506 73.3453 37.8654C72.4566 37.1801 72.025 36.0889 72.025 34.5661C72.025 33.7033 72.2027 32.6627 72.5582 31.4192C73.2184 29.2873 74.8434 27.5362 77.4334 26.1911C78.9315 25.4551 80.912 25.0237 83.4258 24.8714C83.8828 24.8461 84.5176 24.8207 85.3809 24.8207C87.59 24.8207 89.3928 24.973 90.764 25.3029C92.1351 25.6328 93.0746 25.8866 93.557 26.0896L94.0903 31.0131C94.0903 31.0131 93.6586 30.8608 92.8461 30.5563C92.0335 30.2517 91.0179 29.9726 89.7991 29.7188C88.5803 29.465 87.1583 29.3381 85.5333 29.3381C82.0039 29.3381 80.1503 30.3025 79.9979 32.2059Z" fill="black"/>
<path d="M101.86 29.4395H95.3599L96.0962 25.3535H116.816L116.079 29.4395H109.579L105.999 49.7933H98.2799L101.86 29.4395Z" fill="black"/>
<path d="M116.054 46.1895L114.048 49.7933H108.513L121.945 25.3535H128.928L133.904 49.7933H125.728L124.992 46.1895H116.054ZM124.078 41.9259L122.605 34.4137L118.415 41.9259H124.078Z" fill="black"/>
<path d="M154.014 39.9972L158.686 49.7934L150.383 49.8442L146.016 37.6116H149.012C149.85 37.6116 150.688 37.307 151.526 36.7233C152.364 36.1142 152.923 35.1245 153.176 33.6779C153.278 33.1957 153.329 32.7642 153.329 32.3582C153.329 30.404 152.364 29.4142 150.383 29.4142H147.463L143.883 49.768H136.164L140.481 25.3282H153.862C156.071 25.3282 157.823 25.7851 159.143 26.7241C160.464 27.6631 161.124 29.1351 161.124 31.1654C161.124 31.6983 161.073 32.3074 160.972 32.9926C160.692 34.6676 160.184 35.9873 159.499 36.9771C158.813 37.9669 158.052 38.6521 157.264 39.0582C156.503 39.4642 155.792 39.718 155.132 39.8195C154.446 39.921 154.091 39.9718 154.014 39.9972Z" fill="black"/>
<path d="M169.504 29.4395H163.003L163.74 25.3535H184.459L183.723 29.4395H177.223L173.642 49.7933H165.923L169.504 29.4395Z" fill="black"/>
</svg>

<svg width="185" height="67" fill="none" xmlns="http://www.w3.org/2000/svg"><path d="M34.099 67c18.501 0 33.5-14.998 33.5-33.5C67.599 14.998 52.6 0 34.099 0 15.597 0 .599 14.998.599 33.5c0 18.502 14.998 33.5 33.5 33.5z" fill="red"/><path fill-rule="evenodd" clip-rule="evenodd" d="M32.364 36.063l6.475 13.603-11.503.076-6.043-16.953h4.164c1.143 0 2.31-.406 3.479-1.243 1.168-.838 1.93-2.234 2.26-4.213a7.987 7.987 0 00.228-1.827c0-2.716-1.37-4.086-4.088-4.086h-4.063l-4.976 28.246H7.582l5.967-33.931h18.56c3.048 0 5.51.634 7.314 1.928 1.828 1.295 2.742 3.325 2.742 6.142 0 .762-.076 1.6-.229 2.538-.38 2.31-1.066 4.162-2.056 5.533-.99 1.37-2.006 2.335-3.073 2.893-1.066.584-2.056.913-2.97 1.066-.89.127-1.397.203-1.473.228zm15.184 3.706H62.02c.102 0 .305-.787.61-2.335.33-1.548.482-3.071.482-4.594 0-2.386-.483-4.162-1.447-5.304-.99-1.168-2.184-1.904-3.58-2.259-1.397-.33-3.276-.507-5.688-.507-7.72.177-12.315 4.593-13.763 13.273a18.65 18.65 0 00-.304 3.477c0 5.557 2.894 8.502 8.684 8.806.177 0 .457 0 .812.025.356.026.66.026.864.026 2.488 0 4.646-.229 6.5-.66 1.853-.431 3.123-.787 3.86-1.091l2.081-5.837c-.66.431-1.853.964-3.554 1.624-1.702.634-3.682 1.015-5.993 1.091-2.87 0-4.291-1.345-4.291-4.01.025-1.142.102-1.725.254-1.725zm6.043-9.695c2.285.177 3.428 1.345 3.428 3.502-.076 1.294-.203 1.954-.38 1.954h-8.355c.051-.913.432-2.056 1.143-3.4.736-1.371 2.107-2.056 4.164-2.056z" fill="#fff"/><path d="M79.998 32.206c0 .558.355.964 1.041 1.167.686.203 1.904.432 3.606.635 1.7.203 3.021.457 3.91.71 2.97.914 4.469 2.69 4.469 5.355 0 .28-.026.71-.102 1.27-.761 5.76-4.697 8.806-11.858 9.136-.38.025-.94.05-1.675.05-2.413 0-4.47-.203-6.17-.634-1.727-.406-2.59-.71-2.59-.838V42.89c.507.457 1.421 1.016 2.792 1.726 1.346.685 3.022 1.066 5.028 1.117 2.133 0 3.707-.229 4.698-.685 1.015-.457 1.6-1.219 1.751-2.31 0-.964-.355-1.675-1.066-2.081-.71-.406-1.625-.71-2.742-.837-1.118-.127-2.463-.305-4.012-.483-1.6-.279-2.844-.786-3.733-1.472-.888-.685-1.32-1.776-1.32-3.299 0-.863.178-1.903.533-3.147.66-2.132 2.285-3.883 4.875-5.228 1.498-.736 3.479-1.167 5.993-1.32.457-.025 1.092-.05 1.955-.05 2.209 0 4.012.152 5.383.482 1.371.33 2.31.584 2.793.787l.533 4.923s-.431-.152-1.244-.457c-.813-.304-1.828-.583-3.047-.837s-2.64-.38-4.266-.38c-3.53 0-5.383.963-5.535 2.867zm21.862-2.766h-6.5l.736-4.087h20.72l-.737 4.086h-6.5l-3.58 20.354h-7.72l3.581-20.354zm14.194 16.75l-2.006 3.603h-5.535l13.432-24.44h6.983l4.976 24.44h-8.176l-.736-3.603h-8.938zm8.024-4.264l-1.473-7.512-4.19 7.512h5.663zm29.936-1.929l4.672 9.796-8.303.051-4.367-12.232h2.996c.838 0 1.676-.305 2.514-.889.838-.609 1.397-1.599 1.65-3.045a6.36 6.36 0 00.153-1.32c0-1.954-.965-2.944-2.946-2.944h-2.92l-3.58 20.354h-7.719l4.317-24.44h13.381c2.209 0 3.961.457 5.281 1.396 1.321.94 1.981 2.411 1.981 4.441 0 .533-.051 1.142-.152 1.828-.28 1.675-.788 2.994-1.473 3.984-.686.99-1.447 1.675-2.235 2.081-.761.406-1.472.66-2.132.761-.686.102-1.041.153-1.118.178zm15.49-10.557h-6.501l.737-4.087h20.719l-.736 4.086h-6.5l-3.581 20.354h-7.719l3.581-20.354z" fill="#000"/></svg>
